svgs/rocket.svg

<svg width="18" height="18" viewBox="0 0 18 18" xmlns="http://www.w3.org/2000/svg">
<path d="M15.7396 0.333496C12.8808 0.333496 9.04482 2.29483 6.46882 5.66683H4.33335C2.79028 5.66683 1.90588 6.81856 1.29695 8.03656L0.48175 9.66683H2.40628H4.33335L6.33335 11.6668L8.33335 13.6668V15.5939V17.5184L9.96362 16.7034C11.1816 16.0943 12.3334 15.2099 12.3334 13.6668V11.5314C15.7053 8.95536 17.6667 5.11936 17.6667 2.26056V0.333496H15.7396ZM12.3334 4.3335C13.0697 4.3335 13.6667 4.93043 13.6667 5.66683C13.6667 6.40323 13.0697 7.00016 12.3334 7.00016C11.597 7.00016 11 6.40323 11 5.66683C11 4.93043 11.597 4.3335 12.3334 4.3335ZM3.66668 12.3335L3.00002 13.0002C2.03708 13.9631 1.66668 16.3335 1.66668 16.3335C1.66668 16.3335 3.93068 16.0695 5.00002 15.0002L5.66668 14.3335L3.66668 12.3335Z" />
</svg>

<svg xmlns="http://www.w3.org/2000/svg" width="18" height="18"><path d="M15.74.333c-2.86 0-6.695 1.962-9.271 5.334H4.333c-1.543 0-2.427 1.152-3.036 2.37l-.815 1.63h3.851l2 2 2 2v3.851l1.63-.815c1.219-.609 2.37-1.493 2.37-3.036V11.53c3.372-2.576 5.334-6.412 5.334-9.27V.333zm-3.407 4a1.333 1.333 0 1 1 0 2.667 1.333 1.333 0 0 1 0-2.666m-8.666 8L3 13c-.963.963-1.333 3.334-1.333 3.334S3.93 16.07 5 15l.667-.666z"/></svg>
